; generated by Slic3r Prusa Edition 1.41.3+win64 on 2019-02-21 at 20:54:12

; 

; external perimeters extrusion width = 0.45mm
; perimeters extrusion width = 0.45mm
; infill extrusion width = 0.45mm
; solid infill extrusion width = 0.45mm
; top infill extrusion width = 0.40mm
; first layer extrusion width = 0.42mm

M73 P0 R58
M73 Q0 S59
M201 X1000 Y1000 Z1000 E5000 ; sets maximum accelerations, mm/sec^2
M203 X200 Y200 Z12 E120 ; sets maximum feedrates, mm/sec
M204 P1250 R1250 T1250 ; sets acceleration (P, T) and retract acceleration (R), mm/sec^2
M205 X8.00 Y8.00 Z0.40 E1.50 ; sets the jerk limits, mm/sec
M205 S0 T0 ; sets the minimum extruding and travel feed rate, mm/sec
M107
M115 U3.5.1 ; tell printer latest fw version
M83  ; extruder relative mode
M104 S215 ; set extruder temp
M140 S60 ; set bed temp
M190 S60 ; wait for bed temp
M109 S215 ; wait for extruder temp
G28 W ; home all without mesh bed level
G80 ; mesh bed leveling
G1 Y-3.0 F1000.0 ; go outside print area
G92 E0.0
G1 X60.0 E9.0  F1000.0 ; intro line
M73 Q0 S59
M73 P0 R58
G1 X100.0 E12.5  F1000.0 ; intro line
G92 E0.0
M221 S95
M900 K30; Filament gcode
G21 ; set units to millimeters
G90 ; use absolute coordinates
M83 ; use relative distances for extrusion
;BEFORE_LAYER_CHANGE
G92 E0.0
;0.2


G1 E-0.80000 F2100.00000
G1 Z0.600 F10800.000
;AFTER_LAYER_CHANGE
;0.2
G1 X100.512 Y73.609
G1 Z0.200
G1 E0.80000 F2100.00000
M204 S1000
G1 F1200
G1 X102.422 Y72.626 E0.06733
G1 X103.194 Y72.448 E0.02484
G1 X149.891 Y71.293 E1.46459
G1 X152.053 Y71.292 E0.06779
G1 X153.247 Y71.446 E0.03777
G1 X154.027 Y71.851 E0.02754
G1 X155.052 Y72.760 E0.04295
G1 X155.904 Y73.846 E0.04329
G1 X156.487 Y74.880 E0.03721
G1 X169.136 Y111.911 E1.22694
G1 X169.230 Y112.534 E0.01976
G1 X169.143 Y113.283 E0.02367
G1 X168.866 Y113.882 E0.02066
G1 X168.424 Y114.370 E0.02066
G1 X167.812 Y114.722 E0.02213
G1 X103.875 Y138.649 E2.14047
G1 X101.723 Y138.705 E0.06750
G1 X100.915 Y138.508 E0.02608
G1 X83.231 Y129.567 E0.62129
G1 X82.246 Y128.925 E0.03690
G1 X81.816 Y128.503 E0.01887
G1 X81.040 Y127.414 E0.04195
G1 X80.786 Y126.625 E0.02597
G1 X80.873 Y125.611 E0.03190
G1 X81.304 Y124.246 E0.04489
G1 X97.034 Y79.388 E1.49044
G1 X99.755 Y74.461 E0.17649
G1 X100.473 Y73.654 E0.03387
; PURGING FINISHED
G1 F8640
G1 X102.422 Y72.626 E-0.50878
G1 X103.194 Y72.448 E-0.18296
G1 X103.489 Y72.440 E-0.06826
G1 E-0.04000 F2100.00000
G1 Z0.800 F10800.000
G1 X124.601 Y114.122
G1 Z0.200
G1 E0.80000 F2100.00000
G1 F1200
G1 X126.226 Y114.132 E0.05097
G1 X127.544 Y114.199 E0.04137
G1 X127.785 Y114.329 E0.00859
G1 X128.272 Y114.728 E0.01974
G1 X128.671 Y115.215 E0.01974
G1 X128.969 Y115.770 E0.01975
G1 X129.152 Y116.373 E0.01975
G1 X129.214 Y117.000 E0.01976
G1 X129.152 Y117.627 E0.01976
G1 X128.969 Y118.230 E0.01975
G1 X128.671 Y118.785 E0.01975
G1 X128.272 Y119.272 E0.01974
G1 X127.785 Y119.671 E0.01974
G1 X127.230 Y119.969 E0.01975
G1 X126.627 Y120.152 E0.01975
G1 X126.000 Y120.214 E0.01976
G1 X125.373 Y120.152 E0.01976
G1 X124.770 Y119.969 E0.01975
G1 X124.215 Y119.671 E0.01975
G1 X123.728 Y119.272 E0.01974
G1 X123.329 Y118.785 E0.01974
G1 X123.031 Y118.230 E0.01975
G1 X122.848 Y117.627 E0.01975
G1 X122.786 Y117.000 E0.01976
G1 X122.848 Y116.373 E0.01976
G1 X123.031 Y115.770 E0.01975
G1 X123.329 Y115.215 E0.01975
G1 X123.728 Y114.728 E0.01974
G1 X124.215 Y114.329 E0.01974
G1 X124.548 Y114.150 E0.01184
G1 X124.728 Y113.743 F10800.000
G1 F8640
G1 X126.226 Y114.132 E-0.38757
G1 X127.544 Y114.199 E-0.30465
G1 X127.785 Y114.329 E-0.06328
G1 X127.800 Y114.341 E-0.00450
G1 E-0.04000 F2100.00000
G1 Z0.800 F10800.000
G1 X144.716 Y109.016
G1 Z0.200
G1 E0.80000 F2100.00000
G1 F1200
G1 X145.703 Y109.257 E0.03187
G1 X149.294 Y109.257 E0.11258
G1 X149.843 Y109.398 E0.01778
G1 X152.316 Y109.671 E0.07799
G1 X153.424 Y109.671 E0.03476
G1 X155.005 Y109.825 E0.04980
G1 X156.644 Y110.029 E0.05178
G1 X157.753 Y110.062 E0.03478
G1 X159.524 Y110.483 E0.05708
G1 X160.712 Y110.878 E0.03927
G1 X163.661 Y111.624 E0.09537
G1 X164.956 Y112.123 E0.04350
G1 X161.614 Y111.874 E0.10505
G1 X160.431 Y111.705 E0.03750
G1 X158.917 Y111.517 E0.04781
G1 X157.473 Y111.231 E0.04615
G1 X154.091 Y110.814 E0.10685
G1 X151.646 Y110.755 E0.07669
G1 X150.968 Y110.667 E0.02143
G1 X149.485 Y110.706 E0.04653
G1 X147.247 Y110.918 E0.07047
G1 X142.802 Y111.208 E0.13968
G1 X141.174 Y111.960 E0.05622
G1 X139.739 Y112.318 E0.04639
G1 X138.471 Y112.736 E0.04184
G1 X136.821 Y113.065 E0.05275
G1 X134.916 Y113.412 E0.06073
G1 X133.867 Y113.559 E0.03319
G1 X132.157 Y113.559 E0.05363
G1 X130.975 Y113.775 E0.03768
G1 X130.198 Y113.840 E0.02445
G1 X127.795 Y113.840 E0.07533
G1 X127.892 Y113.958 E0.00480
G1 X127.647 Y113.827 E0.00872
G1 X126.237 Y113.755 E0.04428
G1 X124.507 Y113.744 E0.05424
G1 X124.108 Y113.958 E0.01421
G1 X124.180 Y113.870 E0.00357
G1 X120.951 Y113.341 E0.10260
G1 X120.699 Y113.216 E0.00882
G1 X119.426 Y113.159 E0.03995
G1 X117.615 Y113.159 E0.05678
G1 X116.604 Y113.789 E0.03733
G1 X114.945 Y114.532 E0.05702
G1 X112.284 Y115.916 E0.09403
G1 X111.430 Y116.270 E0.02901
G1 X109.091 Y117.566 E0.08382
G1 X108.534 Y118.317 E0.02930
G1 X106.712 Y122.381 E0.13967
G1 X106.389 Y122.956 E0.02068
G1 X105.239 Y125.382 E0.08416
G1 X104.751 Y126.006 E0.02484
G1 X104.166 Y127.964 E0.06409
G1 X103.885 Y129.246 E0.04113
G1 X103.632 Y130.828 E0.05023
G1 X103.380 Y132.165 E0.04267
G1 X103.051 Y134.278 E0.06704
G1 X103.051 Y134.686 E0.01279
G1 X102.842 Y134.137 E0.01840
G1 X102.423 Y133.825 E0.01638
G1 X101.778 Y133.825 E0.02023
G1 X101.504 Y134.224 E0.01517
G1 X101.234 Y132.870 E0.04328
G1 X100.934 Y131.647 E0.03949
G1 X100.444 Y130.979 E0.02598
G1 X98.453 Y131.053 E0.06249
G1 X96.207 Y131.099 E0.07041
G1 X94.667 Y131.064 E0.04830
G1 X94.153 Y130.962 E0.01642
G1 X92.951 Y130.636 E0.03905
G1 X92.344 Y130.376 E0.02072
G1 X91.072 Y129.997 E0.04163
G1 X87.460 Y128.451 E0.12319
G1 X86.585 Y128.025 E0.03051
G1 X86.090 Y127.709 E0.01840
G1 X84.534 Y127.111 E0.05228
G1 X83.951 Y126.721 E0.02198
G1 X83.582 Y126.219 E0.01953
G1 X83.915 Y125.189 E0.03393
G1 X84.249 Y124.597 E0.02132
G1 X84.756 Y123.924 E0.02642
G1 X86.260 Y122.408 E0.06697
G1 X87.053 Y121.884 E0.02978
G1 X87.878 Y121.420 E0.02969
G1 X90.461 Y121.420 E0.08099
G1 X90.789 Y121.198 E0.01242
G1 X93.683 Y121.198 E0.09074
G1 X94.163 Y120.967 E0.01671
G1 X94.906 Y120.116 E0.03540
G1 X97.945 Y109.808 E0.33697
G1 X97.971 Y107.500 E0.07236
G1 X98.115 Y104.704 E0.08778
G1 X98.267 Y104.098 E0.01959
G1 X98.652 Y103.165 E0.03166
G1 X99.670 Y101.274 E0.06733
G1 X100.730 Y99.558 E0.06322
G1 X101.490 Y98.486 E0.04122
G1 X102.070 Y97.872 E0.02648
G1 X102.294 Y97.292 E0.01950
G1 X102.432 Y95.107 E0.06864
G1 X102.937 Y92.535 E0.08218
G1 X102.898 Y85.832 E0.21019
G1 X102.811 Y84.372 E0.04583
G1 X102.208 Y82.646 E0.05735
G1 X101.798 Y82.217 E0.01859
G1 X101.347 Y81.877 E0.01773
G1 X100.606 Y81.269 E0.03004
G1 X100.495 Y81.127 E0.00566
G1 X100.202 Y80.431 E0.02366
G1 X100.383 Y80.479 E0.00584
G1 X101.501 Y80.527 E0.03510
G1 X101.848 Y80.700 E0.01215
G1 X102.567 Y80.700 E0.02255
G1 X103.068 Y80.813 E0.01611
G1 X103.338 Y81.011 E0.01050
G1 X103.765 Y82.003 E0.03386
G1 X103.813 Y82.216 E0.00683
G1 X104.042 Y82.724 E0.01750
G1 X104.310 Y83.542 E0.02699
G1 X104.559 Y83.996 E0.01623
G1 X104.876 Y84.346 E0.01480
G1 X105.459 Y84.399 E0.01837
G1 X105.825 Y84.179 E0.01341
G1 X106.376 Y83.347 E0.03128
G1 X106.376 Y80.854 E0.07817
G1 X106.182 Y80.468 E0.01354
G1 X105.926 Y79.812 E0.02208
G1 X105.926 Y79.320 E0.01541
G1 X105.556 Y78.310 E0.03374
G1 X105.198 Y77.833 E0.01870
G1 X104.360 Y77.470 E0.02863
G1 X103.948 Y77.211 E0.01525
G1 X103.499 Y76.983 E0.01580
G1 X103.313 Y76.671 E0.01139
G1 X102.975 Y76.456 E0.01258
G1 X102.684 Y76.137 E0.01353
G1 X102.288 Y75.768 E0.01697
G1 X103.427 Y75.221 E0.03961
G1 X105.948 Y75.221 E0.07905
G1 X106.271 Y75.557 E0.01462
G1 X106.705 Y76.085 E0.02141
G1 X107.167 Y77.072 E0.03417
G1 X107.691 Y79.197 E0.06863
G1 X108.003 Y80.065 E0.02891
G1 X108.397 Y81.384 E0.04316
G1 X108.636 Y82.629 E0.03975
G1 X108.636 Y83.406 E0.02438
G1 X108.737 Y83.816 E0.01324
G1 X108.737 Y87.771 E0.12400
G1 X109.118 Y90.348 E0.08168
G1 X109.118 Y91.090 E0.02326
G1 X109.610 Y92.371 E0.04302
G1 X109.931 Y92.981 E0.02161
G1 X110.548 Y93.559 E0.02650
G1 X118.324 Y93.559 E0.24382
G1 X120.958 Y94.178 E0.08485
G1 X124.757 Y94.977 E0.12171
G1 X125.834 Y95.413 E0.03642
G1 X126.905 Y95.933 E0.03735
G1 X127.951 Y96.361 E0.03542
G1 X130.056 Y97.534 E0.07557
G1 X133.306 Y97.534 E0.10190
G1 X135.151 Y97.033 E0.05993
G1 X135.881 Y96.660 E0.02570
G1 X137.292 Y95.755 E0.05258
G1 X138.159 Y95.114 E0.03379
G1 X139.039 Y94.321 E0.03716
G1 X139.683 Y93.569 E0.03103
G1 X140.127 Y92.854 E0.02638
G1 X142.935 Y89.814 E0.12976
G1 X143.880 Y89.038 E0.03835
G1 X144.938 Y88.297 E0.04049
G1 X145.722 Y87.658 E0.03173
G1 X146.400 Y87.198 E0.02567
G1 X147.245 Y86.677 E0.03115
G1 X148.135 Y86.087 E0.03348
G1 X148.495 Y85.585 E0.01936
G1 X148.495 Y84.322 E0.03957
G1 X148.255 Y83.243 E0.03466
G1 X148.255 Y82.662 E0.01823
G1 X148.092 Y81.556 E0.03505
G1 X147.945 Y81.114 E0.01462
G1 X147.850 Y80.404 E0.02246
G1 X147.410 Y80.015 E0.01841
G1 X146.364 Y79.574 E0.03560
G1 X146.036 Y79.358 E0.01229
G1 X145.879 Y79.122 E0.00890
G1 X145.656 Y78.913 E0.00957
G1 X145.621 Y78.840 E0.00254
G1 X145.648 Y78.335 E0.01586
G1 X148.004 Y78.335 E0.07387
G1 X148.612 Y78.811 E0.02422
G1 X148.998 Y79.376 E0.02143
G1 X149.233 Y79.910 E0.01829
G1 X149.460 Y80.521 E0.02045
G1 X150.341 Y83.275 E0.09067
G1 X151.606 Y83.275 E0.03965
G1 X152.026 Y82.723 E0.02175
G1 X152.026 Y80.644 E0.06517
G1 X152.159 Y78.286 E0.07407
G1 X152.101 Y76.691 E0.05005
G1 X151.750 Y76.061 E0.02259
G1 X150.633 Y75.726 E0.03658
G1 X150.140 Y75.452 E0.01766
G1 X149.931 Y75.241 E0.00933
G1 X149.653 Y74.706 E0.01889
G1 X149.515 Y74.192 E0.01670
G1 X149.515 Y74.128 E0.00199
G1 X149.972 Y74.068 E0.01444
G1 X152.034 Y74.070 E0.06467
G1 X152.408 Y74.115 E0.01181
G1 X152.929 Y74.551 E0.02129
G1 X153.609 Y75.409 E0.03435
G1 X153.854 Y75.818 E0.01495
G1 X153.854 Y78.019 E0.06899
G1 X153.932 Y78.581 E0.01779
G1 X153.999 Y78.722 E0.00492
G1 X154.048 Y79.584 E0.02707
G1 X153.880 Y80.277 E0.02235
G1 X153.880 Y85.454 E0.16233
G1 X153.492 Y85.942 E0.01953
G1 X152.855 Y86.388 E0.02439
G1 X151.742 Y87.239 E0.04392
G1 X150.410 Y88.993 E0.06906
G1 X150.017 Y90.421 E0.04644
G1 X149.586 Y92.674 E0.07190
G1 X149.278 Y93.585 E0.03018
G1 X148.739 Y94.799 E0.04162
G1 X148.739 Y95.513 E0.02239
G1 X149.114 Y96.587 E0.03567
G1 X149.114 Y101.131 E0.14248
G1 X148.959 Y101.751 E0.02006
G1 X148.296 Y103.152 E0.04858
G1 X147.776 Y103.852 E0.02735
G1 X147.485 Y104.399 E0.01942
G1 X145.940 Y106.288 E0.07652
G1 X145.227 Y107.689 E0.04929
G1 X144.716 Y108.116 E0.02089
G1 X144.716 Y108.956 E0.02633
G1 X145.093 Y108.720 F10800.000
G1 F1200
G1 X145.749 Y108.880 E0.02116
G1 X149.341 Y108.880 E0.11265
G1 X149.911 Y109.026 E0.01844
G1 X152.336 Y109.294 E0.07650
G1 X153.443 Y109.294 E0.03469
G1 X155.047 Y109.451 E0.05053
G1 X156.673 Y109.653 E0.05138
G1 X157.802 Y109.686 E0.03543
G1 X159.627 Y110.120 E0.05880
G1 X160.818 Y110.516 E0.03936
G1 X163.775 Y111.264 E0.09565
G1 X166.315 Y112.243 E0.08534
G1 X166.610 Y112.474 E0.01175
G1 X165.065 Y112.509 E0.04845
G1 X161.574 Y112.249 E0.10978
G1 X160.381 Y112.078 E0.03779
G1 X158.857 Y111.890 E0.04813
G1 X157.414 Y111.604 E0.04615
G1 X154.063 Y111.190 E0.10584
G1 X151.617 Y111.131 E0.07673
G1 X150.949 Y111.045 E0.02113
G1 X149.508 Y111.082 E0.04520
G1 X147.278 Y111.294 E0.07024
G1 X142.896 Y111.580 E0.13766
G1 X141.300 Y112.317 E0.05513
G1 X139.843 Y112.681 E0.04707
G1 X138.567 Y113.102 E0.04213
G1 X136.892 Y113.435 E0.05357
G1 X134.976 Y113.785 E0.06107
G1 X133.893 Y113.936 E0.03426
G1 X132.191 Y113.936 E0.05338
G1 X131.024 Y114.150 E0.03719
G1 X130.213 Y114.217 E0.02552
G1 X128.593 Y114.217 E0.05080
G1 X129.151 Y114.895 E0.02753
G1 X129.501 Y115.550 E0.02327
G1 X129.716 Y116.261 E0.02330
G1 X129.789 Y117.000 E0.02328
G1 X129.716 Y117.739 E0.02328
G1 X129.501 Y118.450 E0.02330
G1 X129.151 Y119.105 E0.02327
G1 X128.679 Y119.679 E0.02330
G1 X128.105 Y120.151 E0.02330
G1 X127.450 Y120.501 E0.02327
G1 X126.739 Y120.716 E0.02330
G1 X126.000 Y120.789 E0.02328
G1 X125.261 Y120.716 E0.02328
G1 X124.550 Y120.501 E0.02330
G1 X123.895 Y120.151 E0.02327
G1 X123.321 Y119.679 E0.02330
G1 X122.849 Y119.105 E0.02330
G1 X122.499 Y118.450 E0.02327
G1 X122.284 Y117.739 E0.02330
G1 X122.211 Y117.000 E0.02328
G1 X122.284 Y116.261 E0.02328
G1 X122.499 Y115.550 E0.02330
G1 X122.849 Y114.895 E0.02327
G1 X123.473 Y114.136 E0.03080
G1 X120.834 Y113.704 E0.08385
G1 X120.603 Y113.589 E0.00810
G1 X119.417 Y113.536 E0.03720
G1 X117.723 Y113.536 E0.05313
G1 X116.782 Y114.122 E0.03476
G1 X115.109 Y114.872 E0.05748
G1 X112.444 Y116.258 E0.09420
G1 X111.594 Y116.611 E0.02885
G1 X109.345 Y117.856 E0.08059
G1 X108.862 Y118.508 E0.02545
G1 X107.049 Y122.551 E0.13892
G1 X106.724 Y123.129 E0.02080
G1 X105.562 Y125.581 E0.08506
G1 X105.091 Y126.184 E0.02399
G1 X104.828 Y127.029 E0.02774
G1 X104.532 Y128.057 E0.03355
G1 X104.256 Y129.316 E0.04041
G1 X104.004 Y130.892 E0.05006
G1 X103.751 Y132.229 E0.04264
G1 X103.428 Y134.307 E0.06594
G1 X103.428 Y136.164 E0.05824
G1 X103.374 Y136.297 E0.00448
G1 X102.985 Y135.891 E0.01764
G1 X102.714 Y135.525 E0.01428
G1 X102.714 Y134.860 E0.02083
G1 X102.528 Y134.374 E0.01632
G1 X102.298 Y134.202 E0.00903
G1 X101.976 Y134.202 E0.01008
G1 X101.794 Y134.468 E0.01012
G1 X101.749 Y136.038 E0.04926
G1 X101.514 Y135.703 E0.01284
G1 X101.301 Y135.485 E0.00955
G1 X101.110 Y134.130 E0.04290
G1 X100.866 Y132.953 E0.03767
G1 X100.586 Y131.809 E0.03693
G1 X100.258 Y131.363 E0.01736
G1 X98.463 Y131.430 E0.05632
G1 X96.207 Y131.476 E0.07077
G1 X94.626 Y131.440 E0.04958
G1 X94.067 Y131.330 E0.01786
G1 X92.827 Y130.993 E0.04029
G1 X92.216 Y130.731 E0.02086
G1 X90.943 Y130.352 E0.04162
G1 X87.303 Y128.795 E0.12416
G1 X86.400 Y128.355 E0.03149
G1 X85.919 Y128.047 E0.01789
G1 X84.359 Y127.448 E0.05241
G1 X83.686 Y126.997 E0.02538
G1 X83.182 Y126.311 E0.02671
G1 X83.219 Y126.113 E0.00630
G1 X83.568 Y125.037 E0.03549
G1 X83.933 Y124.390 E0.02328
G1 X84.470 Y123.677 E0.02800
G1 X86.020 Y122.114 E0.06900
G1 X86.856 Y121.562 E0.03142
G1 X87.779 Y121.043 E0.03321
G1 X90.345 Y121.043 E0.08047
G1 X90.673 Y120.821 E0.01242
G1 X93.597 Y120.821 E0.09167
G1 X93.930 Y120.661 E0.01159
G1 X94.567 Y119.930 E0.03039
G1 X97.569 Y109.751 E0.33274
G1 X97.594 Y107.488 E0.07096
G1 X97.741 Y104.648 E0.08917
G1 X97.908 Y103.980 E0.02160
G1 X98.311 Y103.003 E0.03313
G1 X99.343 Y101.085 E0.06829
G1 X100.415 Y99.350 E0.06395
G1 X101.198 Y98.246 E0.04242
G1 X101.745 Y97.667 E0.02499
G1 X101.922 Y97.211 E0.01535
G1 X102.058 Y95.059 E0.06760
G1 X102.560 Y92.500 E0.08177
G1 X102.521 Y85.844 E0.20869
G1 X102.438 Y84.447 E0.04387
G1 X101.879 Y82.847 E0.05315
G1 X101.547 Y82.500 E0.01507
G1 X101.114 Y82.173 E0.01701
G1 X100.335 Y81.534 E0.03159
G1 X100.167 Y81.319 E0.00854
G1 X99.829 Y80.515 E0.02735
G1 X99.376 Y80.228 E0.01683
G1 X99.623 Y80.018 E0.01015
G1 X99.943 Y79.973 E0.01013
G1 X100.439 Y80.104 E0.01611
G1 X101.597 Y80.154 E0.03634
G1 X101.937 Y80.323 E0.01189
G1 X102.609 Y80.323 E0.02107
G1 X103.228 Y80.462 E0.01990
G1 X103.644 Y80.768 E0.01619
G1 X104.126 Y81.886 E0.03817
G1 X104.172 Y82.096 E0.00673
G1 X104.394 Y82.588 E0.01692
G1 X104.657 Y83.392 E0.02652
G1 X104.868 Y83.776 E0.01373
G1 X105.056 Y83.984 E0.00880
G1 X105.370 Y84.012 E0.00989
G1 X105.558 Y83.899 E0.00686
G1 X105.999 Y83.233 E0.02505
G1 X105.999 Y80.943 E0.07180
G1 X105.837 Y80.621 E0.01129
G1 X105.549 Y79.883 E0.02487
G1 X105.549 Y79.387 E0.01554
G1 X105.222 Y78.492 E0.02989
G1 X104.956 Y78.139 E0.01382
G1 X104.183 Y77.805 E0.02641
G1 X103.762 Y77.539 E0.01561
G1 X103.230 Y77.270 E0.01869
G1 X103.035 Y76.941 E0.01200
G1 X102.730 Y76.747 E0.01133
G1 X102.415 Y76.403 E0.01464
G1 X101.873 Y75.897 E0.02326
G1 X101.849 Y75.663 E0.00736
G1 X102.021 Y75.478 E0.00792
G1 X103.341 Y74.844 E0.04592
G1 X106.109 Y74.844 E0.08678
G1 X106.553 Y75.307 E0.02011
G1 X107.026 Y75.882 E0.02336
G1 X107.524 Y76.945 E0.03682
G1 X108.053 Y79.088 E0.06919
G1 X108.361 Y79.947 E0.02862
G1 X108.764 Y81.294 E0.04408
